X: 1
T: Reel Saint-Paul
O: Qu\'ebec
R: reel
Z: 2010 John Chambers <jc:trillian.mit.edu>
M: C|
L: 1/8
K: A
ed \
| "A"c3B A2a2 | "D"f=gaf dfed | "A"cdec "F#m"A2Bc | "Bm"dB2B "E7"B2ed |
| "A"c2(3BcB A2a2 | "D"f=gaf dfed | "A"cdec "F#m"A2Bc | "E7"dBGB "A"A2 :|
|: Bc \
| "D"d3e f2ed | "A"ccAc e2A2 | "E7"BABc dBcB | "A"AEAB "A7"cBAc |
| "D"d3e f2ed | "A"ccAc e2A2 | "Bm"BABc "E7"dBcB | "A"Aaec A2 :|

%%sep 1 1 500
